{ "compressionlevel":-1,
 "height":10,
 "infinite":false,
 "layers":[
        {
         "data":[35, 36, 35, 36, 36, 36, 36, 36, 36, 36, 36, 2684354595,
            50, 51, 51, 51, 51, 51, 51, 51, 51, 51, 51, 2147483698,
            50, 51, 51, 51, 51, 51, 51, 51, 51, 51, 51, 2147483698,
            50, 51, 51, 51, 51, 51, 51, 51, 51, 51, 51, 2147483698,
            50, 51, 51, 51, 51, 51, 51, 51, 51, 51, 51, 2147483698,
            35, 51, 51, 51, 51, 51, 51, 51, 51, 51, 51, 2684354595,
            50, 51, 51, 51, 51, 51, 51, 51, 51, 51, 51, 2147483698,
            50, 51, 51, 51, 51, 51, 51, 51, 51, 51, 51, 2147483698,
            50, 51, 51, 51, 51, 51, 51, 51, 51, 51, 51, 2147483698,
            0, 0, 0, 0, 0, 0, 0, 0, 0, 0, 0, 0],
         "height":10,
         "id":1,
         "name":"Floor",
         "opacity":1,
         "type":"tilelayer",
         "visible":true,
         "width":12,
         "x":0,
         "y":0
        }, 
        {
         "data":[3628, 3676, 3676, 3676, 3676, 3676, 3676, 3676, 3676, 3676, 3677, 3629,
            3652, 3700, 3700, 3700, 3700, 3700, 3700, 3700, 3700, 3700, 3701, 3653,
            5162, 0, 0, 0, 0, 0, 0, 0, 0, 0, 0, 5167,
            3746, 0, 0, 0, 0, 0, 0, 0, 0, 0, 0, 3751,
            5162, 0, 0, 0, 0, 0, 0, 0, 0, 0, 0, 3751,
            5162, 0, 0, 0, 0, 0, 0, 0, 0, 0, 0, 3751,
            5162, 0, 0, 0, 0, 0, 0, 0, 0, 0, 0, 3751,
            0, 0, 0, 0, 0, 0, 0, 0, 0, 0, 0, 0,
            0, 0, 0, 0, 0, 0, 0, 0, 0, 0, 0, 0,
            0, 0, 0, 0, 0, 0, 0, 0, 0, 0, 0, 0],
         "height":10,
         "id":3,
         "name":"Wall",
         "opacity":1,
         "type":"tilelayer",
         "visible":true,
         "width":12,
         "x":0,
         "y":0
        }, 
        {
         "data":[0, 0, 0, 0, 0, 0, 0, 0, 0, 0, 0, 0,
            0, 0, 0, 0, 0, 0, 0, 0, 0, 0, 0, 0,
            0, 0, 0, 0, 0, 0, 0, 0, 0, 0, 0, 0,
            0, 0, 2303, 2305, 2305, 2305, 2305, 2305, 2305, 2304, 0, 0,
            0, 0, 2317, 2316, 2316, 2316, 2316, 2316, 2316, 2318, 0, 0,
            0, 0, 2317, 2316, 2316, 2316, 2316, 2316, 2316, 2318, 0, 0,
            0, 0, 2317, 2316, 2316, 2316, 2316, 2316, 2316, 2318, 0, 0,
            0, 0, 2319, 2321, 2321, 2321, 2321, 2321, 2321, 2320, 0, 0,
            0, 0, 0, 0, 0, 0, 0, 0, 0, 0, 0, 0,
            0, 0, 0, 0, 0, 0, 0, 0, 0, 0, 0, 0],
         "height":10,
         "id":4,
         "name":"Carpet",
         "opacity":1,
         "type":"tilelayer",
         "visible":true,
         "width":12,
         "x":0,
         "y":0
        }, 
        {
         "data":[0, 817, 818, 2768, 0, 2000, 2001, 0, 1270, 819, 820, 0,
            0, 833, 834, 2784, 0, 2016, 2017, 0, 1286, 835, 836, 0,
            0, 849, 850, 2800, 0, 0, 0, 0, 1284, 851, 852, 0,
            0, 0, 0, 0, 0, 0, 0, 0, 0, 0, 0, 0,
            0, 0, 0, 0, 0, 0, 0, 0, 0, 0, 0, 0,
            0, 0, 0, 0, 0, 0, 0, 0, 0, 0, 0, 0,
            0, 0, 0, 0, 0, 0, 0, 0, 0, 0, 0, 0,
            3746, 0, 0, 0, 0, 0, 0, 0, 0, 0, 0, 3751,
            3746, 0, 0, 0, 0, 0, 0, 0, 0, 0, 0, 3751,
            3747, 3749, 3749, 3749, 3749, 3749, 3749, 3749, 3749, 3749, 3749, 3750],
         "height":10,
         "id":2,
         "name":"Decor",
         "opacity":1,
         "type":"tilelayer",
         "visible":true,
         "width":12,
         "x":0,
         "y":0
        }],
 "nextlayerid":5,
 "nextobjectid":1,
 "orientation":"orthogonal",
 "renderorder":"right-down",
 "tiledversion":"1.12.2",
 "tileheight":32,
 "tilesets":[
        {
         "firstgid":1,
         "name":"Room_Builder_Floors_32x32",
         "tilewidth":32,"tileheight":32,"tilecount":600,"columns":15,
         "spacing":0,"margin":0,
         "image":"../tilesets/Room_Builder_Floors_32x32.png",
         "imagewidth":480,"imageheight":1280
        },
        {
         "firstgid":601,
         "name":"5_Classroom_and_library_32x32",
         "tilewidth":32,"tileheight":32,"tilecount":544,"columns":16,
         "spacing":0,"margin":0,
         "image":"../tilesets/5_Classroom_and_library_32x32.png",
         "imagewidth":512,"imageheight":1088
        },
        {
         "firstgid":1145,
         "name":"2_LivingRoom_32x32",
         "tilewidth":32,"tileheight":32,"tilecount":720,"columns":16,
         "spacing":0,"margin":0,
         "image":"../tilesets/2_LivingRoom_32x32.png",
         "imagewidth":512,"imageheight":1440
        },
        {
         "firstgid":1865,
         "name":"1_Generic_32x32",
         "tilewidth":32,"tileheight":32,"tilecount":1248,"columns":16,
         "spacing":0,"margin":0,
         "image":"../tilesets/1_Generic_32x32.png",
         "imagewidth":512,"imageheight":2496
        },
        {
         "firstgid":3113,
         "name":"Room_Builder_3d_walls_32x32",
         "tilewidth":32,"tileheight":32,"tilecount":1416,"columns":24,
         "spacing":0,"margin":0,
         "image":"../tilesets/Room_Builder_3d_walls_32x32.png",
         "imagewidth":768,"imageheight":1888
        },
        {
         "firstgid":4529,
         "name":"Room_Builder_3d_walls_32x32_2",
         "tilewidth":32,"tileheight":32,"tilecount":1416,"columns":24,
         "spacing":0,"margin":0,
         "image":"../tilesets/Room_Builder_3d_walls_32x32.png",
         "imagewidth":768,"imageheight":1888
        }],
 "tilewidth":32,
 "type":"map",
 "version":"1.10",
 "width":12
}